svg/100/sharp/controller_gen-fill.svg

<svg xmlns="http://www.w3.org/2000/svg" width="48" height="48" viewBox="0 -960 960 960"><path d="M479.882-269Q568-269 629.5-330.382q61.5-61.383 61.5-149.5Q691-568 629.618-629.5q-61.383-61.5-149.5-61.5Q392-691 330.5-629.618q-61.5 61.383-61.5 149.5Q269-392 330.382-330.5q61.383 61.5 149.5 61.5Zm-.077-22Q402-291 346.5-346.695q-55.5-55.694-55.5-133.5Q291-558 346.695-613.5q55.694-55.5 133.5-55.5Q558-669 613.5-613.305q55.5 55.694 55.5 133.5Q669-402 613.305-346.5q-55.694 55.5-133.5 55.5ZM480-464l72-72-16-16-72 72 16 16ZM172-172v-616h616v616H172Z"/></svg>

<svg xmlns="http://www.w3.org/2000/svg" width="48" height="48" viewBox="0 -960 960 960"><path d="M479.88-269q88.12 0 149.62-61.38t61.5-149.5q0-88.12-61.38-149.62T480.12-691Q392-691 330.5-629.62T269-480.12q0 88.12 61.38 149.62t149.5 61.5Zm-.07-22Q402-291 346.5-346.69q-55.5-55.7-55.5-133.5 0-77.81 55.69-133.31 55.7-55.5 133.5-55.5 77.81 0 133.31 55.69 55.5 55.7 55.5 133.5 0 77.81-55.69 133.31-55.7 55.5-133.5 55.5Zm.19-173 72-72-16-16-72 72 16 16ZM172-172v-616h616v616H172Z"/></svg>
